svg/warehouse.svg

<svg xmlns="http://www.w3.org/2000/svg" viewBox="0 0 24 24"><path d="M6 19h2v2H6zm6-16L2 8v13h2v-8h16v8h2V8zm-4 8H4V9h4zm6 0h-4V9h4zm6 0h-4V9h4zM6 15h2v2H6zm4 0h2v2h-2zm0 4h2v2h-2zm4 0h2v2h-2z"/></svg>

<?xml version="1.0" encoding="UTF-8"?><!DOCTYPE svg PUBLIC "-//W3C//DTD SVG 1.1//EN" "http://www.w3.org/Graphics/SVG/1.1/DTD/svg11.dtd"><svg xmlns="http://www.w3.org/2000/svg" xmlns:xlink="http://www.w3.org/1999/xlink" version="1.1" id="mdi-warehouse" width="24" height="24" viewBox="0 0 24 24"><path d="M6 19H8V21H6V19M12 3L2 8V21H4V13H20V21H22V8L12 3M8 11H4V9H8V11M14 11H10V9H14V11M20 11H16V9H20V11M6 15H8V17H6V15M10 15H12V17H10V15M10 19H12V21H10V19M14 19H16V21H14V19Z" /></svg>
